DSView/icons/light/single.svg

<?xml version="1.0" encoding="UTF-8" standalone="no"?>
<!-- 由 Microsoft Visio, SVG Export 生成 single.svg 页-1 -->

<svg
   xmlns:v="http://schemas.microsoft.com/visio/2003/SVGExtensions/"
   xmlns:dc="http://purl.org/dc/elements/1.1/"
   xmlns:cc="http://creativecommons.org/ns#"
   xmlns:rdf="http://www.w3.org/1999/02/22-rdf-syntax-ns#"
   xmlns:svg="http://www.w3.org/2000/svg"
   xmlns="http://www.w3.org/2000/svg"
   xmlns:sodipodi="http://sodipodi.sourceforge.net/DTD/sodipodi-0.dtd"
   xmlns:inkscape="http://www.inkscape.org/namespaces/inkscape"
   width="512"
   height="512"
   viewBox="0 0 384.00023 383.99965"
   xml:space="preserve"
   class="st3"
   version="1.1"
   id="svg29"
   sodipodi:docname="single.svg"
   style="font-size:12px;overflow:visible;color-interpolation-filters:sRGB;fill:none;fill-rule:evenodd;stroke-linecap:square;stroke-miterlimit:3"
   inkscape:version="0.92.4 (5da689c313, 2019-01-14)"><metadata
   id="metadata35"><rdf:RDF><cc:Work
       rdf:about=""><dc:format>image/svg+xml</dc:format><dc:type
         rdf:resource="http://purl.org/dc/dcmitype/StillImage" /><dc:title></dc:title></cc:Work></rdf:RDF></metadata><defs
   id="defs33" /><sodipodi:namedview
   pagecolor="#ffffff"
   bordercolor="#666666"
   borderopacity="1"
   objecttolerance="10"
   gridtolerance="10"
   guidetolerance="10"
   inkscape:pageopacity="0"
   inkscape:pageshadow="2"
   inkscape:window-width="793"
   inkscape:window-height="480"
   id="namedview31"
   showgrid="false"
   units="px"
   inkscape:zoom="0.66210977"
   inkscape:cx="255.99985"
   inkscape:cy="177.32016"
   inkscape:window-x="0"
   inkscape:window-y="0"
   inkscape:window-maximized="0"
   inkscape:current-layer="svg29" />
	<v:documentProperties
   v:langID="2052"
   v:viewMarkup="false" />

	<style
   type="text/css"
   id="style2">
	<![CDATA[
		.st1 {fill:#2a2a2a;stroke:#2a2a2a;stroke-linecap:butt;stroke-width:1.37143}
		.st2 {fill:#2a2a2a;stroke:#2a2a2a;stroke-linecap:round;stroke-linejoin:round;stroke-width:0.5}
		.st3 {fill:none;fill-rule:evenodd;font-size:12px;overflow:visible;stroke-linecap:square;stroke-miterlimit:3}
	]]>
	</style>

	<g
   v:mID="0"
   v:index="1"
   v:groupContext="foregroundPage"
   id="g27"
   transform="translate(2.833615,54.417725)">
		<title
   id="title4">页-1</title>
		<v:pageProperties
   v:drawingScale="0.0393701"
   v:pageScale="0.0393701"
   v:drawingUnits="24"
   v:shadowOffsetX="9"
   v:shadowOffsetY="-9" />
		<g
   id="group120-1"
   v:mID="120"
   v:groupContext="group">
			<title
   id="title6">工作表.120</title>
			<g
   id="group121-2"
   transform="translate(28.3465,-17.0079)"
   v:mID="121"
   v:groupContext="group">
				<title
   id="title8">工作表.121</title>
				<g
   id="shape122-3"
   v:mID="122"
   v:groupContext="shape">
					<title
   id="title10">工作表.122</title>
					<path
   d="M 210.25,43.2 H 111.39 C 49.97,43.2 0,93.17 0,154.59 0,216.01 49.97,265.98 111.39,265.98 h 98.86 c 61.42,0 111.39,-49.97 111.39,-111.39 C 321.64,93.17 271.67,43.2 210.25,43.2 Z m 0,202.1 h -98.86 c -50.02,0 -90.71,-40.69 -90.71,-90.71 0,-50.02 40.69,-90.72 90.71,-90.72 h 98.86 c 50.02,0 90.71,40.7 90.71,90.72 0,50.02 -40.69,90.71 -90.71,90.71 z"
   class="st1"
   id="path12"
   inkscape:connector-curvature="0"
   style="fill:#2a2a2a;stroke:#2a2a2a;stroke-width:1.37143004;stroke-linecap:butt" />
				</g>
				<g
   id="shape123-5"
   v:mID="123"
   v:groupContext="shape"
   transform="rotate(90,112.987,252.313)">
					<title
   id="title15">工作表.123</title>
					<path
   d="M 74.72,192.22 26.23,151.68 C 15.83,142.98 0,150.38 0,163.94 v 81.08 c 0,13.56 15.83,20.96 26.23,12.26 l 48.49,-40.54 c 7.64,-6.39 7.64,-18.13 0,-24.52 z"
   class="st1"
   id="path17"
   inkscape:connector-curvature="0"
   style="fill:#2a2a2a;stroke:#2a2a2a;stroke-width:1.37143004;stroke-linecap:butt" />
				</g>
			</g>
			<g
   id="shape124-7"
   v:mID="124"
   v:groupContext="shape"
   transform="translate(129.502,-155.906)">
				<title
   id="title21">工作表.124</title>
				<rect
   x="0"
   y="242.84599"
   width="119.327"
   height="23.134001"
   rx="11.567"
   ry="11.567"
   class="st2"
   id="rect23"
   style="fill:#2a2a2a;stroke:#2a2a2a;stroke-width:0.5;stroke-linecap:round;stroke-linejoin:round" />
			</g>
		</g>
	</g>
</svg>

<?xml version="1.0" encoding="UTF-8" standalone="no"?>
<!DOCTYPE svg PUBLIC "-//W3C//DTD SVG 1.1//EN" "http://www.w3.org/Graphics/SVG/1.1/DTD/svg11.dtd">
<!-- 由 Microsoft Visio, SVG Export 生成 single.svg 页-1 -->
<svg xmlns="http://www.w3.org/2000/svg" xmlns:xlink="http://www.w3.org/1999/xlink" xmlns:ev="http://www.w3.org/2001/xml-events"
		xmlns:v="http://schemas.microsoft.com/visio/2003/SVGExtensions/" width="5.33333in" height="3.69417in"
		viewBox="0 0 384 265.98" xml:space="preserve" color-interpolation-filters="sRGB" class="st3">
	<v:documentProperties v:langID="2052" v:viewMarkup="false"/>

	<style type="text/css">
	<![CDATA[
		.st1 {fill:#2a2a2a;stroke:#2a2a2a;stroke-linecap:butt;stroke-width:1.37143}
		.st2 {fill:#2a2a2a;stroke:#2a2a2a;stroke-linecap:round;stroke-linejoin:round;stroke-width:0.5}
		.st3 {fill:none;fill-rule:evenodd;font-size:12px;overflow:visible;stroke-linecap:square;stroke-miterlimit:3}
	]]>
	</style>

	<g v:mID="0" v:index="1" v:groupContext="foregroundPage">
		<title>页-1</title>
		<v:pageProperties v:drawingScale="0.0393701" v:pageScale="0.0393701" v:drawingUnits="24" v:shadowOffsetX="9"
				v:shadowOffsetY="-9"/>
		<g id="group120-1" v:mID="120" v:groupContext="group">
			<title>工作表.120</title>
			<g id="group121-2" transform="translate(28.3465,-17.0079)" v:mID="121" v:groupContext="group">
				<title>工作表.121</title>
				<g id="shape122-3" v:mID="122" v:groupContext="shape">
					<title>工作表.122</title>
					<path d="M210.25 43.2 L111.39 43.2 C49.97 43.2 0 93.17 0 154.59 C0 216.01 49.97 265.98 111.39 265.98 L210.25
								 265.98 C271.67 265.98 321.64 216.01 321.64 154.59 C321.64 93.17 271.67 43.2 210.25 43.2 ZM210.25
								 245.3 L111.39 245.3 C61.37 245.3 20.68 204.61 20.68 154.59 C20.68 104.57 61.37 63.87 111.39 63.87
								 L210.25 63.87 C260.27 63.87 300.96 104.57 300.96 154.59 C300.96 204.61 260.27 245.3 210.25 245.3
								 Z" class="st1"/>
				</g>
				<g id="shape123-5" v:mID="123" v:groupContext="shape" transform="translate(365.3,139.326) rotate(90)">
					<title>工作表.123</title>
					<path d="M74.72 192.22 L26.23 151.68 C15.83 142.98 0 150.38 0 163.94 L0 245.02 C0 258.58 15.83 265.98 26.23 257.28
								 L74.72 216.74 C82.36 210.35 82.36 198.61 74.72 192.22 Z" class="st1"/>
				</g>
			</g>
			<g id="shape124-7" v:mID="124" v:groupContext="shape" transform="translate(129.502,-155.906)">
				<title>工作表.124</title>
				<rect x="0" y="242.846" width="119.327" height="23.134" rx="11.567" ry="11.567" class="st2"/>
			</g>
		</g>
	</g>
</svg>
